X: 5243
T: Broken Pledge, The
R: reel
M: 4/4
K: Ddorian
|:ed BA Be eB|dG AG FA DA|EF GA Be ec|(3.B.cB Ad Bf gf
ed BA ~B3 c|dG AG FA DA|EF GA Be ec|~B2 Af Be eB:|
|:ed BA (3B.c.d ef|g2 ef fd Bc|dA FA dc de|fd (3B.c.d fb af
ed BA (3B.c.d ef|g2 ef fd BA|~G3 F GA Be|dB AF Be eB:|

